X:1
T: Duncan Keppie's Visit
C:Bruce Shawyer
R:Jig
I:speed 180
K:A
M:6/8
L:1/16
|:g2|a2g2a2 f2e2d2|c2A2A2 A4A2|A2B2c2 B2c2^d2|e2B2G2 E4g2|
a2g2a2 f2e2d2|c2A2A2 A4A2|A2B2c2 B2A2G2|A6 A4:|
|:A2|A2B2c2 c2d2e2|d2c2B2 B6|A2B2c2 c2d2e2|d2e2f2 g6|
a2g2a2 f2e2d2|e2d2c2 B4B2|A2B2c2 d2c2B2|E2F2G2 A4:|
